;Generated by Cura LulzBot Edition GCodeWriter Version: 3.6.34
;FLAVOR:Marlin
;TIME:1176
;Filament used: 1.15161m
;Layer height: 0.4
;Generated with Cura_SteamEngine 3.6.34-win10
M82 ;absolute extrusion mode
;This G-Code has been generated specifically for the LulzBot TAZ 6 with standard extruder
;
;The following lines can be uncommented for printer specific fine tuning
;More information can be found at https://marlinfw.org/meta/gcode/
;
;M92 E833                 ;Set Axis Steps-per-unit
;M301 P21.0 I1.78 D61.93  ;Set Hotend PID
;M906 E135                ;Digipot Motor Current ((750mA-750)/5+135) = 135
;M206 Y4                  ;Set Home Offsets (default:4)
;
M73 P0 ; clear GLCD progress bar
M75 ; start GLCD timer
G26 ; clear potential 'probe fail' condition
M107 ; disable fans
M420 S0 ; disable previous leveling matrix
G90 ; absolute positioning
M82 ; set extruder to absolute mode
G92 E0 ; set extruder position to 0
M140 S60.0 ; start bed heating up
M109 R140 ; soften filament before homing Z
G28 ; Home all axis
G1 E-15 F100 ; retract filament
M109 R140                  ; wait for extruder to reach wiping temp
;M206 X0 Y0 Z0              ; uncomment to adjust wipe position (+X ~ nozzle moves left)(+Y ~ nozzle moves forward)(+Z ~ nozzle moves down)
G12                         ; wiping sequence
M206 X0 Y4 Z0               ; reseting stock nozzle position ### CAUTION: changing this line can affect print quality ###
M109 R140 ; wait for extruder to reach probe temp
G1 X-10 Y293 F4000 ; move above first probe point
M204 S100 ; set probing acceleration
G29 ; start auto-leveling sequence
M420 S1 ; activate bed level matrix
M425 Z			     ; use measured Z backlash for compensation
M425 Z F0		     ; turn off measured Z backlash compensation. (if activated in the quality settings, this command will automatically be ignored)
M204 S500 ; restore standard acceleration
G1 X0 Y0 Z15 F5000 ; move up off last probe point
G4 S1 ; pause
M400 ; wait for moves to finish
M117 Heating... ; progress indicator message on LCD
M109 R210 ; wait for extruder to reach printing temp
M190 R60.0 ; wait for bed to reach printing temp
G1 Z2 E0 F75 ; prime tiny bit of filament into the nozzle
M117 TAZ 6 Printing... ; progress indicator message on LCD

M221 S100 T0
G92 E0
G1 F600 E-1.75
;LAYER_COUNT:30
;LAYER:0
M107
G0 F3000 X95.635 Y139.759 Z0.425
;TYPE:SKIRT
G1 F600 E0
G1 F1080 X96.344 Y139.422 E0.02615
G1 X101.836 Y137.483 E0.22016
G1 X106.868 Y135.372 E0.40193
G1 X111.744 Y132.993 E0.58265
G1 X116.095 Y130.574 E0.74848
G1 X134.842 Y119.531 E1.47323
G1 X135.332 Y119.288 E1.49145
G1 X135.853 Y119.12 E1.50969
G1 X136.393 Y119.029 E1.52793
G1 X136.746 Y119.012 E1.5397
G1 X143.261 Y119.013 E1.75672
G1 X143.806 Y119.053 E1.77492
G1 X144.341 Y119.172 E1.79318
G1 X144.852 Y119.368 E1.81141
G1 X145.164 Y119.532 E1.82315
G1 X163.885 Y130.562 E2.54694
G1 X168.7 Y133.222 E2.73018
G1 X173.617 Y135.585 E2.9119
G1 X178.674 Y137.673 E3.09414
G1 X182.316 Y138.958 E3.22279
G1 X183.631 Y139.412 E3.26913
G1 X184.134 Y139.628 E3.28736
G1 X184.601 Y139.914 E3.3056
G1 X185.02 Y140.266 E3.32383
G1 X185.384 Y140.674 E3.34204
G1 X185.685 Y141.132 E3.3603
G1 X185.916 Y141.628 E3.37853
G1 X186.072 Y142.153 E3.39677
G1 X186.159 Y142.958 E3.42374
G1 X186.158 Y146.484 E3.54119
G1 X186.118 Y147.03 E3.55943
G1 X185.999 Y147.564 E3.57765
G1 X185.803 Y148.075 E3.59588
G1 X185.535 Y148.553 E3.61414
G1 X185.201 Y148.986 E3.63235
G1 X184.806 Y149.366 E3.65061
G1 X184.361 Y149.684 E3.66883
G1 X183.698 Y150.004 E3.69335
G1 X154.374 Y160.747 E4.73363
G1 X153.848 Y160.897 E4.75185
G1 X153.086 Y160.976 E4.77737
G1 X126.983 Y160.987 E5.64687
G1 X126.437 Y160.947 E5.66511
G1 X125.693 Y160.759 E5.69067
G1 X96.307 Y150.009 E6.73297
G1 X95.808 Y149.784 E6.7512
G1 X95.347 Y149.488 E6.76945
G1 X94.934 Y149.129 E6.78768
G1 X94.578 Y148.714 E6.80589
G1 X94.286 Y148.251 E6.82413
G1 X94.064 Y147.75 E6.84238
G1 X93.918 Y147.223 E6.8606
G1 X93.845 Y146.49 E6.88513
G1 X93.842 Y142.961 E7.00269
G1 X93.881 Y142.415 E7.02092
G1 X94 Y141.881 E7.03914
G1 X94.195 Y141.369 E7.05739
G1 X94.463 Y140.892 E7.07562
G1 X94.797 Y140.458 E7.09386
G1 X95.19 Y140.078 E7.11207
G1 X95.635 Y139.759 E7.13031
G0 F3000 X96.111 Y140.065
G1 F1080 X96.51 Y139.893 E7.14478
G1 X102.028 Y137.945 E7.33971
G1 X107.065 Y135.832 E7.52166
G1 X111.983 Y133.432 E7.70394
G1 X116.335 Y131.013 E7.8698
G1 X135.095 Y119.962 E8.59506
G1 X135.553 Y119.738 E8.61205
G1 X136.041 Y119.589 E8.62904
G1 X136.745 Y119.512 E8.65263
G1 X143.26 Y119.513 E8.86965
G1 X143.768 Y119.553 E8.88662
G1 X144.264 Y119.672 E8.90362
G1 X144.91 Y119.963 E8.92722
G1 X163.641 Y130.999 E9.6514
G1 X168.472 Y133.667 E9.83523
G1 X173.404 Y136.038 E10.01751
G1 X178.486 Y138.136 E10.20065
G1 X182.154 Y139.431 E10.33023
G1 X182.154 Y139.432 E10.33026
G1 X183.468 Y139.885 E10.37656
G1 X183.936 Y140.088 E10.39355
G1 X184.365 Y140.362 E10.41051
G1 X184.747 Y140.699 E10.42748
G1 X185.071 Y141.092 E10.44444
G1 X185.33 Y141.531 E10.46142
G1 X185.517 Y142.005 E10.47839
G1 X185.627 Y142.503 E10.49538
G1 X185.659 Y142.958 E10.51058
G1 X185.658 Y146.484 E10.62803
G1 X185.618 Y146.992 E10.645
G1 X185.499 Y147.487 E10.66196
G1 X185.304 Y147.958 E10.67894
G1 X185.038 Y148.393 E10.69593
G1 X184.707 Y148.78 E10.71289
G1 X184.32 Y149.111 E10.72985
G1 X183.886 Y149.378 E10.74683
G1 X183.526 Y149.535 E10.75991
G1 X154.202 Y160.278 E11.80019
G1 X153.711 Y160.415 E11.81717
G1 X153.085 Y160.476 E11.83812
G1 X126.982 Y160.487 E12.70762
G1 X126.474 Y160.447 E12.72459
G1 X125.864 Y160.289 E12.74558
G1 X96.478 Y149.539 E13.78788
G1 X96.015 Y149.327 E13.80485
G1 X95.591 Y149.045 E13.82181
G1 X95.215 Y148.701 E13.83878
G1 X94.899 Y148.302 E13.85574
G1 X94.648 Y147.858 E13.87273
G1 X94.47 Y147.38 E13.88972
G1 X94.369 Y146.881 E13.90668
G1 X94.345 Y146.49 E13.91973
G1 X94.342 Y142.961 E14.03728
G1 X94.382 Y142.453 E14.05425
G1 X94.5 Y141.957 E14.07124
G1 X94.694 Y141.486 E14.0882
G1 X94.96 Y141.051 E14.10519
G1 X95.29 Y140.664 E14.12213
G1 X95.677 Y140.332 E14.13911
G1 X96.111 Y140.065 E14.15609
G1 F600 E12.40609
;MESH:
G0 F3000 X97.846 Y142.285
G0 X97.846 Y143.214
G0 X127.46 Y153.529
G0 X127.417 Y153.439
;TYPE:WALL-OUTER
G1 F600 E14.15609
G1 F1080 X127.447 Y153.352 E14.15915
G1 X127.514 Y153.156 E14.16605
G1 X135.673 Y129.319 E15.0053
G1 X135.711 Y129.208 E15.00921
G1 X135.943 Y128.53 E15.03308
G1 X136.001 Y128.362 E15.039
G1 X136.36 Y127.312 E15.07596
G1 X137.116 Y125.105 E15.15367
G1 X136.314 Y124.451 E15.18814
G1 X103.074 Y144.06 E16.47368
G1 X102.907 Y144.158 E16.48013
G1 X102.935 Y144.473 E16.49067
G1 X103.117 Y144.539 E16.49712
G1 X127.222 Y153.368 E17.35223
G1 X127.417 Y153.439 E17.35712
G0 F3000 X127.447 Y153.352
G0 X127.498 Y153.203
G0 X127.911 Y153.509
G1 F1080 X128.117 Y153.509 E17.36399
G1 X152.089 Y153.509 E18.1625
G1 X143.86 Y129.473 E19.00877
G1 X143.873 Y129.159 E19.01924
G1 X143.632 Y128.247 E19.05066
G1 X143.29 Y127.635 E19.07402
G1 X143.169 Y127.479 E19.08059
G1 X142.798 Y126.999 E19.1008
G1 X142.131 Y126.478 E19.12899
G1 X141.495 Y126.116 E19.15337
G1 X141.263 Y126.021 E19.16172
G1 X140.642 Y125.918 E19.18269
G1 X139.903 Y125.814 E19.20755
G1 X139.073 Y125.999 E19.23587
G1 X138.288 Y126.202 E19.26288
G1 X136.982 Y127.215 E19.31794
G1 X136.826 Y127.491 E19.3285
G1 X136.281 Y128.457 E19.3579
G1 X136.228 Y128.627 E19.36144
G1 X136.127 Y129.351 E19.37955
G1 X136.138 Y129.478 E19.38352
G1 X127.978 Y153.314 E20.21519
G1 X127.911 Y153.509 E20.21927
G0 F3000 X128.117 Y153.509
G0 X128.161 Y153.509
G0 X128.161 Y153.609
G0 X152.54 Y153.529
G0 X152.583 Y153.439
G1 F1080 X152.777 Y153.368 E20.22615
G1 X176.883 Y144.539 E21.08129
G1 X177.065 Y144.473 E21.08774
G1 X177.093 Y144.158 E21.09827
G1 X176.926 Y144.06 E21.10472
G1 X143.686 Y124.451 E22.39027
G1 X142.884 Y125.105 E22.42474
G1 X143.637 Y127.307 E22.50226
G1 X143.701 Y127.494 E22.50841
G1 X143.924 Y128.147 E22.52544
G1 X144.229 Y129.037 E22.54687
G1 X144.324 Y129.313 E22.55526
G1 X152.485 Y153.155 E23.39468
G1 X152.552 Y153.35 E23.39956
G1 X152.583 Y153.439 E23.4027
G0 F3000 X152.777 Y153.368
G0 X152.818 Y153.353
G0 X152.851 Y153.447
G0 X177.096 Y144.497
G0 X177.124 Y144.176
G0 X176.51 Y143.269
G0 X176.58 Y143.199
G1 F1080 X182.168 Y143.199 E23.58884
G1 X182.168 Y146.318 E23.69274
G1 X153.009 Y156.997 E24.72712
G1 X126.991 Y156.997 E25.59379
G1 X97.832 Y146.318 E26.62818
G1 X97.832 Y143.2 E26.73204
G1 X103.42 Y143.2 E26.91818
G1 X103.42 Y142.695 E26.935
G1 X136.803 Y123.003 E28.22605
G1 X143.197 Y123.003 E28.43904
G1 X176.58 Y142.695 E29.73009
G1 X176.58 Y143.199 E29.74687
G0 F3000 X176.83 Y143.199
G0 X177.262 Y143.689
;TYPE:SKIN
G1 F1080 X181.678 Y143.689 E29.89397
G1 X181.678 Y145.975 E29.97012
G1 X152.922 Y156.507 E30.99022
G1 X127.078 Y156.507 E31.85109
G1 X98.322 Y145.975 E32.87119
G1 X98.322 Y143.69 E32.9473
G1 X102.736 Y143.69 E33.09433
G1 X102.392 Y143.893 E33.10764
G1 X102.474 Y144.826 E33.13884
G1 X127.321 Y153.926 E34.02026
G1 X127.321 Y153.999 E34.02269
G1 X127.519 Y153.999 E34.02929
G1 X127.72 Y154.074 E34.03643
G1 X127.745 Y153.999 E34.03907
G1 X152.255 Y153.999 E34.85551
G1 X152.28 Y154.074 E34.85814
G1 X152.481 Y153.999 E34.86529
G1 X152.679 Y153.999 E34.87188
G1 X152.679 Y153.926 E34.87431
G1 X177.526 Y144.826 E35.75574
G1 X177.608 Y143.893 E35.78694
G1 X177.262 Y143.689 E35.80031
G0 F3000 X178.984 Y145.364
G1 F1080 X179 Y145.189 E35.80617
G1 X179.463 Y145.189 E35.82159
G1 X178.984 Y145.364 E35.83858
G0 F3000 X178.466 Y145.546
G1 F1080 X178.542 Y144.689 E35.86724
G1 X180.678 Y144.689 E35.93839
G1 X180.678 Y145.276 E35.95794
G1 X152.745 Y155.507 E36.94885
G1 X127.255 Y155.507 E37.79793
G1 X99.322 Y145.276 E38.78884
G1 X99.322 Y144.69 E38.80836
G1 X101.458 Y144.69 E38.87951
G1 X101.534 Y145.546 E38.90813
G1 X126.321 Y154.625 E39.78744
G1 X126.321 Y154.999 E39.7999
G1 X127.339 Y154.999 E39.83381
G1 X128.34 Y155.374 E39.86941
G1 X128.465 Y154.999 E39.88258
G1 X151.535 Y154.999 E40.65105
G1 X151.66 Y155.374 E40.66422
G1 X152.661 Y154.999 E40.69983
G1 X153.679 Y154.999 E40.73374
G1 X153.679 Y154.625 E40.74619
G1 X178.466 Y145.546 E41.6255
G0 F3000 X177.996 Y145.186
G1 F1080 X178.084 Y144.189 E41.65884
G1 X181.178 Y144.189 E41.7619
G1 X181.178 Y145.625 E41.80974
G1 X152.832 Y156.007 E42.81529
G1 X127.168 Y156.007 E43.67017
G1 X98.822 Y145.625 E44.67572
G1 X98.822 Y144.19 E44.72352
G1 X101.916 Y144.19 E44.82659
G1 X102.004 Y145.186 E44.85989
G1 X126.821 Y154.276 E45.74026
G1 X126.821 Y154.499 E45.74769
G1 X127.43 Y154.499 E45.76798
G1 X128.03 Y154.724 E45.78932
G1 X128.105 Y154.499 E45.79722
G1 X151.895 Y154.499 E46.58968
G1 X151.97 Y154.724 E46.59758
G1 X152.57 Y154.499 E46.61892
G1 X153.179 Y154.499 E46.63921
G1 X153.179 Y154.276 E46.64664
G1 X177.996 Y145.186 E47.52701
G0 F3000 X152.566 Y153.475
G0 X152.121 Y153.532
G0 X127.879 Y153.532
G0 X127.52 Y153.487
G0 X101.016 Y145.364
G1 F1080 X100.54 Y145.19 E47.54389
G1 X101 Y145.19 E47.55921
G1 X101.016 Y145.364 E47.56503
G0 F3000 X100.169 Y145.071
;TYPE:SKIN
G1 F1080 X99.838 Y145.093 E47.57712
G0 F3000 X99.699 Y144.954
G0 X127.434 Y153.475
G0 X127.879 Y153.532
G0 X152.121 Y153.532
G0 X152.48 Y153.487
G0 X179.69 Y145.042
G0 X179.804 Y145.156
G1 F1080 X180.066 Y145.065 E47.58401
G1 X180.36 Y145.005 E47.59146
G0 F3000 X180.412 Y145.057
G0 X176.09 Y142.997
;TYPE:SKIN
G1 F1080 X143.641 Y123.855 E48.8464
G1 X142.31 Y124.941 E48.90363
G1 X142.802 Y126.38 E48.95428
G1 X142.405 Y126.07 E48.97106
G1 X141.71 Y125.675 E48.99769
G1 X141.398 Y125.547 E49.00892
G1 X140.716 Y125.434 E49.03195
G1 X139.883 Y125.316 E49.05998
G1 X138.958 Y125.523 E49.09155
G1 X138.068 Y125.753 E49.12217
G1 X137.175 Y126.446 E49.15982
G1 X137.69 Y124.941 E49.21281
G1 X136.359 Y123.855 E49.27003
G1 X103.91 Y142.997 E50.52497
G1 X103.91 Y142.974 E50.52574
G1 X136.937 Y123.493 E51.80301
G1 X143.063 Y123.493 E52.00707
G1 X176.09 Y142.974 E53.28433
G1 X176.09 Y142.997 E53.2851
G0 F3000 X143.683 Y124.412
G0 X141.255 Y124.51
G1 F1080 X141.152 Y124.493 E53.28857
G1 X141.275 Y124.493 E53.29267
G1 X141.255 Y124.51 E53.29355
G0 F3000 X141.724 Y124.773
M104 S205
G1 F1080 X141.87 Y125.2 E53.30858
G1 X141.536 Y125.063 E53.3206
G1 X140.792 Y124.94 E53.34572
G1 X139.863 Y124.808 E53.37698
G1 X138.84 Y125.037 E53.4119
G1 X138.123 Y125.223 E53.43657
G1 X138.276 Y124.773 E53.4524
G1 X137.319 Y123.993 E53.49353
G1 X142.681 Y123.993 E53.67214
G1 X141.724 Y124.773 E53.71327
G0 F3000 X138.982 Y124.493
G1 F1080 X138.779 Y124.538 E53.72019
G1 X138.724 Y124.493 E53.72256
G1 X138.982 Y124.493 E53.73115
G0 F3000 X139.345 Y124.496
;TYPE:SKIN
G1 F1080 X139.61 Y124.407 E53.73652
G1 X140.705 Y124.441 E53.75757
G1 X140.895 Y124.278 E53.76237
G1 X141.661 Y124.337 E53.77713
G0 F3000 X141.74 Y124.416
G0 X142.03 Y125.413
G1 F1080 X142.298 Y125.681 E53.78344
G0 F3000 X143.08 Y123.988
G1 F1080 X142.892 Y123.8 E53.78787
G0 F3000 X138.61 Y124.822
G0 X138.583 Y124.795
G1 F1080 X138.452 Y124.31 E53.79162
G0 F3000 X138.399 Y124.257
G0 X137.79 Y125.415
G1 F1080 X137.921 Y125.547 E53.79472
G0 F3000 X137.047 Y123.965
G1 F1080 X136.891 Y123.81 E53.79838
;MESH:NONMESH
G0 F3000 X137.154 Y125.094
G0 X127.46 Y153.529
G0 X127.417 Y153.439
;TIME_ELAPSED:111.973077
;LAYER:1
M140 S60
M221 S100 T0
M106 S63.8
;MESH:
G0 F7500 X127.417 Y153.439 Z0.825
;TYPE:WALL-OUTER
G1 F2613.8 X127.447 Y153.352 E53.80127
G1 X136.001 Y128.36 E54.62941
G1 X136.015 Y128.319 E54.63077
G1 X137.116 Y125.105 E54.73728
G1 X136.314 Y124.451 E54.76972
G1 X103.074 Y144.06 E55.97965
G1 X102.907 Y144.158 E55.98572
G1 X102.935 Y144.473 E55.99563
G1 X103.117 Y144.539 E56.0017
G1 X127.417 Y153.439 E56.81302
G0 F7500 X127.447 Y153.352
G0 X127.498 Y153.203
G0 X127.591 Y153.236
G0 X127.879 Y153.532
G0 X152.17 Y153.567
G0 X152.089 Y153.509
G1 F2613.8 X143.524 Y128.5 E57.64178
G1 X143.505 Y128.466 E57.643
G1 X142.894 Y127.37 E57.68234
G1 X141.633 Y126.384 E57.73253
G1 X141.197 Y126.203 E57.74733
G1 X139.993 Y126.004 E57.78558
G1 X138.406 Y126.359 E57.83657
G1 X137.107 Y127.369 E57.88815
G1 X136.488 Y128.48 E57.92803
G1 X136.467 Y128.518 E57.92938
G1 X127.911 Y153.509 E58.74178
G1 X152.089 Y153.509 E59.49978
G0 F7500 X152.008 Y153.273
G0 X152.583 Y153.439
G1 F2613.8 X176.883 Y144.539 E60.3111
G1 X177.065 Y144.473 E60.31717
G1 X177.093 Y144.158 E60.32708
G1 X176.926 Y144.06 E60.33315
G1 X143.686 Y124.451 E61.54308
G1 X142.884 Y125.105 E61.57552
G1 X143.979 Y128.303 E61.68149
G1 X143.991 Y128.339 E61.68268
G1 X152.552 Y153.35 E62.49654
G1 X152.583 Y153.439 E62.49949
G0 F7500 X152.817 Y153.354
G0 X152.849 Y153.447
G0 X177.096 Y144.497
G0 X177.121 Y144.209
G0 X176.736 Y142.899
G0 X176.762 Y142.803
G1 F2613.8 X182.168 Y142.803 E62.66898
G1 X182.168 Y146.318 E62.77917
G1 X153.009 Y156.997 E63.75271
G1 X126.991 Y156.997 E64.5684
G1 X97.832 Y146.318 E65.54194
G1 X97.832 Y142.803 E65.65214
G1 X103.231 Y142.803 E65.82141
G1 X136.803 Y123.003 E67.04334
G1 X143.197 Y123.003 E67.24379
G1 X176.762 Y142.803 E68.46553
G0 F7500 X177.012 Y142.803
G0 X176.628 Y143.293
;TYPE:SKIN
G1 F2613.8 X181.678 Y143.293 E68.62386
G1 X181.678 Y145.975 E68.70794
G1 X152.922 Y156.507 E69.66803
G1 X127.078 Y156.507 E70.47826
G1 X98.322 Y145.975 E71.43836
G1 X98.322 Y143.293 E71.52244
G1 X103.365 Y143.293 E71.68054
G1 X136.937 Y123.493 E72.90247
G1 X143.063 Y123.493 E73.09453
G1 X176.628 Y143.293 E74.31627
G0 F7500 X177.608 Y143.893
G1 F2613.8 X143.641 Y123.855 E75.55266
G1 X142.31 Y124.941 E75.60651
G1 X142.941 Y126.785 E75.66761
G1 X141.882 Y125.957 E75.70976
G1 X141.332 Y125.729 E75.72842
G1 X139.979 Y125.505 E75.77142
G1 X138.192 Y125.905 E75.82883
G1 X137.058 Y126.787 E75.87387
G1 X137.69 Y124.941 E75.93504
G1 X136.359 Y123.855 E75.9889
G1 X102.392 Y143.893 E77.22528
G1 X102.474 Y144.826 E77.25465
G1 X127.321 Y153.926 E78.08422
G1 X127.321 Y153.999 E78.08651
G1 X127.519 Y153.999 E78.09272
G1 X127.72 Y154.074 E78.09944
G1 X127.745 Y153.999 E78.10192
G1 X152.255 Y153.999 E78.87033
G1 X152.28 Y154.074 E78.87281
G1 X152.481 Y153.999 E78.87954
G1 X152.679 Y153.999 E78.88575
G1 X152.679 Y153.926 E78.88803
G1 X177.526 Y144.826 E79.71761
G1 X177.608 Y143.893 E79.74697
G0 F7500 X180.178 Y144.927
