;Generated by Cura LulzBot Edition GCodeWriter Version: 3.6.34
;FLAVOR:Marlin
;TIME:919
;Filament used: 1.20279m
;Layer height: 0.6
;Generated with Cura_SteamEngine 3.6.34-win10
M82 ;absolute extrusion mode
;This G-Code has been generated specifically for the LulzBot TAZ 6 with a HS Tool Head
;
;The following lines can be uncommented for printer specific fine tuning
;More information can be found at https://marlinfw.org/meta/gcode/
;
;M92 E420                 ;Set Axis Steps-per-unit
;M301 P21.0 I1.78 D61.93  ;Set Hotend PID
;M906 E160                ;Digipot Motor Current ((875mA-750)/5+135) = 160
;M206 Y0                  ;Set Home Offsets (default:0)
;
M73 P0 ; clear GLCD progress bar
M75 ; start GLCD timer
G26 ; clear potential 'probe fail' condition
M107 ; disable fans
M420 S0 ; disable leveling matrix
G90 ; absolute positioning
M82 ; set extruder to absolute mode
G92 E0 ; set extruder position to 0
M140 S75.0 ; start bed heating up
G28 XY ; home X and Y
G1 X-19 Y258 F1000 ; move to safe homing position
M109 R185 ; soften filament before homing Z
G28 Z ; home Z
G1 E-15 F100 ; retract filament
M109 R170                  ; wait for extruder to reach wiping temp
;M206 X0 Y0 Z0              ; uncomment to adjust wipe position (+X ~ nozzle moves left)(+Y ~ nozzle moves forward)(+Z ~ nozzle moves down)
G12                         ; wiping sequence
M206 X0 Y0 Z0               ; reseting stock nozzle position ### CAUTION: changing this line can affect print quality ###
M109 R160 ; wait for extruder to reach probe temp
G1 X-10 Y293 F4000 ; move above first probe point
M204 S100 ; set probing acceleration
G29       ; start auto-leveling sequence
M420 S1   ; enable leveling matrix
M425 Z	  ; use measured Z backlash for compensation
M425 Z F0 ; turn off measured Z backlash compensation. (if activated in the quality settings, this command will automatically be ignored)
M204 S500 ; restore standard acceleration
G1 X0 Y0 Z15 F5000 ; move up off last probe point
G4 S1 ; pause
M400 ; wait for moves to finish
M117 Heating... ; progress indicator message on LCD
M109 R220 ; wait for extruder to reach printing temp
M190 R75.0 ; wait for bed to reach printing temp
G1 Z2 E0 F75 ; prime tiny bit of filament into the nozzle
M117 TAZ 6 Printing... ; progress indicator message on LCD

M221 S100 T0
G92 E0
G1 F900 E-2
;LAYER_COUNT:16
;LAYER:0
M107
G0 F6000 X92.259 Y138.189 Z0.65
;TYPE:SKIRT
G1 F900 E0.07838
G1 X92.878 Y137.855 E0.13571
G1 X93.57 Y137.58 E0.19641
G1 X97.985 Y136.127 E0.57527
G1 X102.946 Y134.206 E1.00891
G1 X107.779 Y132.015 E1.44146
G1 X112.486 Y129.551 E1.87452
G1 X133.173 Y117.212 E3.83795
G1 X133.797 Y116.886 E3.89533
G1 X134.454 Y116.634 E3.95269
G1 X135.136 Y116.457 E4.01012
G1 X135.833 Y116.359 E4.0675
G1 X136.347 Y116.337 E4.10943
G1 X143.64 Y116.335 E4.7039
G1 X144.343 Y116.375 E4.7613
G1 X145.037 Y116.494 E4.81869
G1 X145.713 Y116.691 E4.87609
G1 X146.362 Y116.963 E4.93345
G1 X146.826 Y117.215 E4.97649
G1 X165.072 Y128.137 E6.70986
G1 X169.765 Y130.773 E7.14861
G1 X174.537 Y133.108 E7.58166
G1 X179.402 Y135.157 E8.01195
G1 X184.468 Y136.96 E8.45027
G1 X186.321 Y137.542 E8.60859
G1 X186.98 Y137.791 E8.66601
G1 X187.606 Y138.112 E8.72336
G1 X188.192 Y138.503 E8.78078
G1 X188.729 Y138.957 E8.8381
G1 X189.212 Y139.47 E8.89553
G1 X189.634 Y140.034 E8.95295
G1 X189.988 Y140.642 E9.0103
G1 X190.272 Y141.286 E9.06767
G1 X190.481 Y141.958 E9.12503
G1 X190.612 Y142.65 E9.18244
G1 X190.665 Y143.425 E9.24576
G1 X190.691 Y148.354 E9.64754
G1 X190.655 Y149.057 E9.70492
G1 X190.539 Y149.752 E9.76235
G1 X190.345 Y150.429 E9.81976
G1 X190.076 Y151.079 E9.8771
G1 X189.735 Y151.695 E9.93449
G1 X189.326 Y152.268 E9.99188
G1 X188.855 Y152.791 E10.04925
G1 X188.328 Y153.257 E10.10659
G1 X187.751 Y153.661 E10.164
G1 X187.132 Y153.996 E10.22138
G1 X186.201 Y154.347 E10.30248
G1 X154.547 Y163.428 E12.98675
G1 X153.86 Y163.583 E13.04416
G1 X152.835 Y163.668 E13.12799
G1 X127.055 Y163.661 E15.22938
G1 X126.352 Y163.621 E15.28678
G1 X125.343 Y163.419 E15.37066
G1 X93.812 Y154.351 E18.045
G1 X93.148 Y154.119 E18.10233
G1 X92.514 Y153.812 E18.15975
G1 X91.919 Y153.436 E18.21712
G1 X91.371 Y152.995 E18.27446
G1 X90.876 Y152.494 E18.33187
G1 X90.441 Y151.94 E18.38929
G1 X90.072 Y151.341 E18.44663
G1 X89.773 Y150.704 E18.50399
G1 X89.548 Y150.037 E18.56137
G1 X89.4 Y149.348 E18.61881
G1 X89.326 Y148.414 E18.69518
G1 X89.309 Y143.49 E19.09655
G1 X89.347 Y142.787 E19.15394
G1 X89.464 Y142.093 E19.21131
G1 X89.659 Y141.417 E19.26866
G1 X89.929 Y140.767 E19.32603
G1 X90.271 Y140.152 E19.38339
G1 X90.681 Y139.579 E19.44082
G1 X91.153 Y139.057 E19.49819
G1 X91.681 Y138.592 E19.55554
G1 X92.259 Y138.189 E19.61297
G0 F6000 X92.458 Y139.013
G1 F900 X93.022 Y138.676 E19.66653
G1 X93.821 Y138.34 E19.73718
G1 X98.248 Y136.883 E20.11708
G1 X103.259 Y134.943 E20.55508
G1 X108.13 Y132.734 E20.99104
G1 X112.874 Y130.25 E21.42754
G1 X133.583 Y117.899 E23.393
G1 X134.167 Y117.598 E23.44656
G1 X134.782 Y117.369 E23.50005
G1 X135.422 Y117.217 E23.55367
G1 X136.348 Y117.137 E23.62943
G1 X143.641 Y117.135 E24.2239
G1 X144.296 Y117.175 E24.27739
G1 X144.942 Y117.294 E24.33094
G1 X145.569 Y117.491 E24.38451
G1 X146.415 Y117.902 E24.46117
G1 X164.643 Y128.813 E26.19283
G1 X169.393 Y131.481 E26.63691
G1 X174.211 Y133.838 E27.07411
G1 X179.116 Y135.905 E27.50798
G1 X184.221 Y137.722 E27.94967
G1 X186.082 Y138.306 E28.10866
G1 X186.695 Y138.54 E28.16214
G1 X187.276 Y138.847 E28.21571
G1 X187.815 Y139.223 E28.26928
G1 X188.305 Y139.661 E28.32285
G1 X188.737 Y140.155 E28.37634
G1 X189.107 Y140.699 E28.42997
G1 X189.407 Y141.283 E28.48349
G1 X189.635 Y141.899 E28.53703
G1 X189.786 Y142.538 E28.59055
G1 X189.865 Y143.43 E28.66354
G1 X189.891 Y148.359 E29.06532
G1 X189.854 Y149.014 E29.1188
G1 X189.739 Y149.661 E29.17236
G1 X189.545 Y150.289 E29.22594
G1 X189.277 Y150.889 E29.2795
G1 X188.937 Y151.451 E29.33304
G1 X188.532 Y151.968 E29.38658
G1 X188.068 Y152.433 E29.44012
G1 X187.55 Y152.837 E29.49367
G1 X186.987 Y153.176 E29.54724
G1 X186.387 Y153.443 E29.60077
G1 X185.98 Y153.578 E29.63572
G1 X154.326 Y162.659 E32.31999
G1 X153.685 Y162.801 E32.37351
G1 X152.836 Y162.868 E32.44293
G1 X127.056 Y162.861 E34.54432
G1 X126.4 Y162.821 E34.59789
G1 X125.565 Y162.651 E34.66735
G1 X94.034 Y153.583 E37.34169
G1 X93.414 Y153.363 E37.39532
G1 X92.826 Y153.07 E37.44887
G1 X92.279 Y152.707 E37.50238
G1 X91.779 Y152.281 E37.55592
G1 X91.334 Y151.797 E37.60952
G1 X90.952 Y151.263 E37.66304
G1 X90.637 Y150.686 E37.71662
G1 X90.395 Y150.076 E37.77011
G1 X90.228 Y149.44 E37.82371
G1 X90.141 Y148.789 E37.87725
G1 X90.126 Y148.412 E37.908
G1 X90.109 Y143.488 E38.30937
G1 X90.147 Y142.832 E38.36293
G1 X90.264 Y142.185 E38.41653
G1 X90.458 Y141.558 E38.47003
G1 X90.728 Y140.959 E38.52358
G1 X91.068 Y140.397 E38.57712
G1 X91.474 Y139.88 E38.63071
G1 X91.94 Y139.417 E38.68425
G1 X92.458 Y139.013 E38.7378
G1 F900 E36.7378
G1 F180 Z1.65
;MESH:
G0 F6000 X127.32 Y154.632 Z1.65
;TYPE:WALL-OUTER
G1 F180 Z0.65
G1 F900 E38.81618
G1 X127.402 Y154.405 E38.83585
G1 X133.932 Y136.149 E40.41627
G1 X137.597 Y125.905 E41.30312
G1 X137.708 Y125.594 E41.33003
G1 X137.272 Y125.237 E41.37597
G1 X136.989 Y125.407 E41.39913
G1 X101.74 Y146.536 E44.74901
G1 X101.469 Y146.698 E44.77474
G1 X101.537 Y147.218 E44.81749
G1 X101.841 Y147.305 E44.83919
G1 X127.32 Y154.632 E47.00021
G0 F6000 X127.402 Y154.405
G0 X127.455 Y154.256
G0 X128.154 Y154.675
G1 F900 X151.846 Y154.675 E48.93141
G1 X145.315 Y136.418 E50.51193
G1 X144.764 Y136.406 E50.55686
G1 X144.676 Y136.625 E50.57609
G1 X144.407 Y137.288 E50.63442
G1 X144.07 Y138.12 E50.70759
G1 X144.054 Y138.159 E50.71102
G1 X143.948 Y138.279 E50.72407
G1 X143.432 Y138.865 E50.78772
G1 X142.969 Y139.39 E50.84478
G1 X142.649 Y139.565 E50.87451
G1 X141.865 Y139.994 E50.94735
G1 X141.527 Y140.18 E50.9788
G1 X140.882 Y140.286 E51.03208
G1 X140.148 Y140.407 E51.09272
G1 X140 Y140.432 E51.10495
G1 X139.986 Y140.43 E51.10611
G1 X139.199 Y140.3 E51.17113
G1 X138.473 Y140.18 E51.23111
G1 X138.329 Y140.101 E51.2445
G1 X137.531 Y139.664 E51.31866
G1 X137.031 Y139.39 E51.36513
G1 X136.765 Y139.088 E51.39794
G1 X136.181 Y138.425 E51.46996
G1 X135.946 Y138.159 E51.49889
G1 X135.677 Y137.494 E51.55736
G1 X135.355 Y136.699 E51.62728
G1 X135.236 Y136.406 E51.65305
G1 X134.685 Y136.418 E51.69798
G1 X128.154 Y154.675 E53.2785
G0 F6000 X128.554 Y154.675
G1 F900 E51.2785
G1 F180 Z1.65
G0 F6000 X143.996 Y137.123 Z1.65
G1 F180 Z0.65
G1 F900 E53.35688
G1 X144.122 Y136.402 E53.39595
G1 X144.136 Y136.31 E53.40047
G1 X144.244 Y135.614 E53.45788
G1 X144.115 Y134.881 E53.51855
G1 X143.91 Y134.038 E53.58927
G1 X143.429 Y133.282 E53.66231
G1 X142.894 Y132.578 E53.73438
G1 X142.209 Y132.173 E53.79924
G1 X141.441 Y131.686 E53.87337
G1 X140.72 Y131.56 E53.93303
G1 X139.932 Y131.438 E53.99803
G1 X139.199 Y131.567 E54.0587
G1 X138.356 Y131.772 E54.12941
G1 X137.6 Y132.253 E54.20245
G1 X136.896 Y132.788 E54.27453
G1 X136.492 Y133.471 E54.33921
G1 X136.004 Y134.241 E54.41352
G1 X135.878 Y134.962 E54.47318
G1 X135.756 Y135.75 E54.53818
G1 X135.852 Y136.297 E54.58074
G1 X135.885 Y136.483 E54.59096
G1 X136.09 Y137.326 E54.63731
G1 X136.425 Y137.853 E54.66822
G1 X136.571 Y138.082 E54.68218
G1 X137.106 Y138.786 E54.72609
G1 X137.315 Y138.909 E54.73631
G1 X137.789 Y139.19 E54.76686
G1 X138.559 Y139.678 E54.81478
G1 X139.28 Y139.804 E54.85241
G1 X140.068 Y139.926 E54.8935
G1 X140.801 Y139.797 E54.93074
G1 X141.398 Y139.652 E54.96267
G1 X141.644 Y139.592 E54.97364
G1 X142.4 Y139.111 E55.01821
G1 X142.626 Y138.94 E55.03278
G1 X143.104 Y138.576 E55.06201
G1 X143.508 Y137.893 E55.10361
G1 X143.543 Y137.837 E55.10663
G1 X143.996 Y137.123 E55.15077
G0 F6000 X144.064 Y136.729
G1 F900 E53.15077
G1 F180 Z1.65
G0 F6000 X152.68 Y154.632 Z1.65
G1 F180 Z0.65
G1 F900 E55.22915
G1 X178.463 Y147.218 E57.41595
G1 X178.531 Y146.698 E57.4587
G1 X142.728 Y125.237 E60.86122
G1 X142.292 Y125.594 E60.90715
G1 X146.067 Y136.149 E61.82089
G1 X152.598 Y154.405 E63.39837
G1 X152.68 Y154.632 E63.41805
G0 F6000 X153.064 Y154.522
G1 F900 E61.41805
G1 F180 Z1.65
G0 F6000 X177.7 Y143.859 Z1.65
G1 F180 Z0.65
G1 F900 E63.49642
G1 X184.101 Y143.859 E64.01819
G1 X184.101 Y148.095 E64.36347
G1 X152.87 Y157.075 E67.01233
G1 X127.13 Y157.075 E69.11046
G1 X95.899 Y148.095 E71.75932
G1 X95.899 Y143.86 E72.10453
G1 X102.3 Y143.86 E72.62629
G1 X102.3 Y143.402 E72.66362
G1 X136.461 Y122.925 E75.91011
G1 X143.539 Y122.925 E76.48705
G1 X177.7 Y143.402 E79.73354
G1 X177.7 Y143.859 E79.77079
G0 F6000 X178.1 Y143.859
G0 X176.9 Y144.659
;TYPE:WALL-INNER
G1 F900 X178.145 Y144.659 E79.87228
G1 X183.301 Y144.659 E80.29255
G1 X183.301 Y147.492 E80.52348
G1 X179.41 Y148.61 E80.85348
G1 X153.177 Y156.154 E83.07845
G1 X152.757 Y156.275 E83.11408
G1 X152.643 Y156.275 E83.12337
G1 X152.18 Y156.275 E83.16111
G1 X152.132 Y156.275 E83.16503
G1 X127.868 Y156.275 E85.14284
G1 X127.82 Y156.275 E85.14676
G1 X127.357 Y156.275 E85.1845
G1 X127.243 Y156.275 E85.19379
G1 X126.824 Y156.155 E85.22932
G1 X96.699 Y147.492 E87.78439
G1 X96.699 Y144.66 E88.01524
G1 X101.853 Y144.66 E88.43535
G1 X103.1 Y144.66 E88.537
G1 X103.1 Y143.855 E88.60262
G1 X136.682 Y123.725 E91.79408
G1 X137.343 Y123.725 E91.84796
G1 X137.712 Y123.725 E91.87804
G1 X142.288 Y123.725 E92.25104
G1 X142.657 Y123.725 E92.28112
G1 X143.318 Y123.725 E92.335
G1 X176.734 Y143.755 E95.51067
G1 X176.9 Y143.855 E95.52646
G1 X176.9 Y144.051 E95.54244
G1 X176.9 Y144.659 E95.592
G1 F900 E93.592
G1 F180 Z1.65
G0 F6000 X127.018 Y155.475 Z1.65
G1 F180 Z0.65
G1 F900 E95.67038
G1 X127.05 Y155.475 E95.67299
G1 X127.243 Y155.475 E95.68738
G1 X127.357 Y155.475 E95.69668
G1 X127.82 Y155.608 E95.73277
G1 X127.868 Y155.475 E95.74374
G1 X152.132 Y155.475 E97.72156
G1 X152.18 Y155.608 E97.73252
G1 X152.643 Y155.475 E97.76862
G1 X152.757 Y155.475 E97.77789
G1 X152.95 Y155.475 E97.79227
G1 X152.982 Y155.475 E97.79488
G1 X152.95 Y155.386
G1 X179.188 Y147.842 E100.02025
G1 X179.392 Y146.282 E100.14849
G1 X177.912 Y145.395 E100.28914
G1 X176.844 Y144.755 E100.34852
G1 X176.323 Y144.443 E100.37946
G1 X142.907 Y124.411 E103.55323
G1 X142.657 Y124.261 E103.57075
G1 X142.372 Y124.494 E103.59609
G1 X141.349 Y125.332 E103.70388
G1 X143.444 Y131.187 E104.21077
G1 X143.69 Y131.877 E104.27048
G1 X143.979 Y132.683 E104.34027
G1 X143.436 Y131.969 E104.35471
G1 X142.805 Y131.596 E104.39586
G1 X142.616 Y131.484 E104.41377
G1 X141.735 Y130.925 E104.49882
G1 X140.85 Y130.771 E104.57204
G1 X139.924 Y130.627 E104.64843
G1 X139.035 Y130.784 E104.72201
G1 X138.038 Y131.026 E104.80564
G1 X137.277 Y131.51 E104.87915
G1 X137.142 Y131.596 E104.8922
G1 X136.287 Y132.246 E104.97975
G1 X136.01 Y132.714 E105.02408
G1 X136.189 Y132.211 E105.02668
G1 X136.493 Y131.364 E105.06717
G1 X136.547 Y131.213 E105.07938
G1 X138.651 Y125.332 E105.58851
G1 X137.628 Y124.494 E105.6963
G1 X137.343 Y124.261 E105.72164
G1 X137.094 Y124.41 E105.73907
G1 X103.511 Y144.541 E108.92297
G1 X103.156 Y144.754 E108.9455
G1 X102.087 Y145.395 E109.00479
G1 X100.608 Y146.282 E109.14537
G1 X100.812 Y147.842 E109.27361
G1 X127.05 Y155.386 E111.49898
G1 X127.018 Y155.475
G1 F900 E109.49898
G1 F180 Z1.65
G0 F6000 X99.747 Y145.866 Z1.65
G1 F180 Z0.65
G1 F900 E111.57735
G1 X99.895 Y146.996 E111.67025
G1 X99.896 Y146.997 E111.67037
G1 X99.974 Y147.601 E111.72001
G1 X99.388 Y147.433 E111.74893
G1 X97.499 Y146.889 E111.90917
G1 X97.499 Y145.46 E112.02565
G1 X99.747 Y145.46 E112.20889
G1 X100.424 Y145.46 E112.26407
G1 X99.747 Y145.866 E112.28542
G1 F900 E110.28542
G1 F180 Z1.65
G0 F6000 X139.594 Y125.07 Z1.65
G1 F180 Z0.65
G1 F900 E112.3638
G1 X138.928 Y124.525 E112.43395
G1 X139.594 Y124.525 E112.44956
G1 X140.406 Y124.525 E112.51575
G1 X141.072 Y124.525 E112.57004
G1 X140.406 Y125.07 E112.60149
G1 X142.028 Y129.606 E112.99416
G1 X142.205 Y130.101 E113.03701
G1 X142.287 Y130.328 E113.05668
G1 X142.029 Y130.164 E113.0629
G1 X141.511 Y130.075 E113.09154
G1 X140.98 Y129.982 E113.13548
G1 X139.916 Y129.816 E113.22326
G1 X138.871 Y130.001 E113.30976
G1 X138.451 Y130.103 E113.34499
G1 X137.731 Y130.277 E113.40537
G1 X137.98 Y129.58 E113.43917
G1 X139.594 Y125.07 E113.82962
G1 F900 E111.82962
G1 F180 Z1.65
G0 F6000 X180.253 Y145.866 Z1.65
G1 F180 Z0.65
G1 F900 E113.908
G1 X179.574 Y145.459 E113.97253
G1 X180.253 Y145.459 E113.98481
G1 X182.501 Y145.459 E114.16805
G1 X182.501 Y146.889 E114.28461
G1 X180.612 Y147.433 E114.44485
G1 X180.026 Y147.601 E114.49454
G1 X180.104 Y146.997 E114.52344
G1 X180.105 Y146.996 E114.52355
G1 X180.253 Y145.866 E114.61645
G0 F6000 X181.069 Y146.468
G1 F900 X180.977 Y146.495 E114.62426
G1 X181.008 Y146.259 E114.63345
G1 X181.701 Y146.259 E114.676
G1 X181.701 Y146.287
G1 X181.069 Y146.468 E114.68341
G1 F900 E112.68341
G1 F180 Z1.65
G0 F6000 X140.362 Y129.076 Z1.65
G1 F180 Z0.65
G1 F900 E114.76179
G1 X139.908 Y129.005 E114.79924
G1 X139.654 Y129.05 E114.82027
G1 X138.976 Y129.17 E114.87639
G1 X139.208 Y128.522 E114.90824
G1 X140 Y126.309 E115.09983
G1 X140.801 Y128.547 E115.29359
G1 X141.027 Y129.18 E115.34837
G1 X140.363 Y129.077 E115.3796
G1 X140.362 Y129.076 E115.37971
G1 F900 E113.37971
G1 F180 Z1.65
G0 F6000 X99.023 Y146.495 Z1.65
G1 F180 Z0.65
G1 F900 E115.45809
G1 X98.933 Y146.47 E115.4657
G1 X98.299 Y146.287 E115.51949
G1 X98.299 Y146.26 E115.52169
G1 X98.992 Y146.26 E115.53196
G1 X99.023 Y146.495 E115.54121
G1 F900 E113.54121
G1 F180 Z1.65
G0 F6000 X139.816 Y128.502 Z1.65
;TYPE:SKIN
G1 F180 Z0.65
G1 F900 E115.61959
G1 X140.041 Y127.596 E115.69193
G1 F900 E113.69193
G1 F180 Z1.65
G0 F6000 X144.451 Y133.703 Z1.65
;TYPE:SKIN
G1 F180 Z0.65
G1 F900 E115.77031
